build/communication/NoWifiSolid.svg

<svg xmlns="http://www.w3.org/2000/svg" fill="none" viewBox="0 0 24 24" focusable="false"><path d="M0 0H24V24H0z"/><path fill="#74767B" fill-rule="evenodd" d="M4.36716 2.20689C4.65168 1.98798 5.05978 2.04117 5.27869 2.32569L6.97596 4.53167C8.41081 3.56453 10.1395 2.99998 12 2.99998C16.9706 2.99998 21 7.02941 21 12C21 14.6988 19.8121 17.1202 17.9306 18.7697L19.5797 20.9131C19.7986 21.1976 19.7454 21.6057 19.4609 21.8246C19.1764 22.0435 18.7683 21.9903 18.5494 21.7058L4.24836 3.11842C4.02945 2.8339 4.08264 2.4258 4.36716 2.20689ZM15.0155 14.9809C15.1222 14.9524 15.223 14.8963 15.3067 14.8126C15.5605 14.5588 15.5605 14.1472 15.3067 13.8934C14.8725 13.4592 14.357 13.1147 13.7897 12.8797C13.6158 12.8077 13.4381 12.7464 13.2575 12.696L15.0155 14.9809ZM12.1361 11.2384C12.8728 11.2553 13.6004 11.4085 14.2819 11.6908C15.0053 11.9904 15.6626 12.4296 16.2163 12.9833C16.4701 13.2372 16.8817 13.2372 17.1355 12.9833C17.3894 12.7295 17.3894 12.3179 17.1355 12.0641C16.4611 11.3897 15.6605 10.8547 14.7794 10.4897C13.8982 10.1247 12.9538 9.93689 12 9.93689C11.7225 9.93689 11.4458 9.9528 11.1712 9.98434L12.1361 11.2384ZM10.2792 8.82496C10.8441 8.70889 11.4207 8.64998 12.0002 8.64998C13.123 8.64998 14.2348 8.87114 15.2722 9.30082C16.3095 9.73051 17.2521 10.3603 18.0461 11.1543C18.2999 11.4081 18.7115 11.4081 18.9653 11.1543C19.2191 10.9004 19.2191 10.4889 18.9653 10.235C18.0506 9.32036 16.9647 8.5948 15.7697 8.09978C14.5746 7.60476 13.2937 7.34998 12.0002 7.34998C11.1237 7.34998 10.253 7.46696 9.41087 7.69639L10.2792 8.82496ZM3 12C3 9.82986 3.76807 7.83914 5.04719 6.28481L6.94217 8.74776C6.24933 9.16236 5.60852 9.66152 5.03501 10.235C4.78117 10.4889 4.78117 10.9004 5.03501 11.1543C5.28885 11.4081 5.70041 11.4081 5.95425 11.1543C6.48814 10.6204 7.08923 10.1607 7.74115 9.78622L8.53434 10.8171C7.92185 11.1497 7.35924 11.5694 6.86455 12.0641C6.61071 12.3179 6.61071 12.7295 6.86455 12.9833C7.11839 13.2372 7.52995 13.2372 7.78379 12.9833C8.23917 12.5279 8.76465 12.15 9.33935 11.8634L10.1433 12.9083C9.60258 13.1423 9.11075 13.4765 8.69384 13.8934C8.44 14.1472 8.44 14.5588 8.69384 14.8126C8.94768 15.0665 9.35924 15.0665 9.61308 14.8126C9.92657 14.4991 10.2987 14.2504 10.7083 14.0808C10.7947 14.045 10.8825 14.0129 10.9712 13.9845L11.8422 15.1164C11.5022 15.1343 11.1672 15.21 10.8519 15.3406C10.5806 15.4531 10.3276 15.6045 10.1011 15.7898C9.97279 15.8947 9.97365 16.0859 10.0908 16.2031L11.7879 17.9002C11.905 18.0173 12.095 18.0173 12.2121 17.9002L13.2135 16.8988L15.7434 20.1869C14.6035 20.709 13.3357 21 12 21C7.02944 21 3 16.9705 3 12Z"/></svg>

<svg xmlns="http://www.w3.org/2000/svg" fill="none" viewBox="0 0 24 24" focusable="false"><path fill="#74767B" fill-rule="evenodd" d="M4.36 2.2a.65.65 0 0 1 .91.12l1.7 2.21A8.94 8.94 0 0 1 12 3a8.994 8.994 0 0 1 5.93 15.76l1.64 2.15c.22.28.17.69-.11.91-.29.22-.7.17-.92-.12L4.24 3.11a.65.65 0 0 1 .12-.91m10.65 12.78c.11-.03.21-.09.29-.17a.64.64 0 0 0 0-.92 4.6 4.6 0 0 0-2.05-1.2zm-2.88-3.75c.74.02 1.47.17 2.15.46.72.3 1.38.73 1.93 1.29.26.25.67.25.92 0 .25-.26.25-.67 0-.92a7.15 7.15 0 0 0-2.36-1.58c-.88-.36-1.82-.55-2.77-.55-.28 0-.56.02-.83.05zm-1.86-2.41c.57-.12 1.15-.18 1.73-.18 1.12 0 2.23.23 3.27.66a8.6 8.6 0 0 1 2.77 1.85c.25.25.67.25.92 0s.25-.67 0-.92c-.91-.91-2-1.64-3.2-2.14A9.9 9.9 0 0 0 12 7.34c-.88 0-1.75.12-2.59.35zM3 12c0-2.18.76-4.17 2.04-5.72l1.9 2.46c-.7.42-1.34.92-1.91 1.49-.25.25-.25.67 0 .92s.67.25.92 0c.53-.53 1.13-.99 1.79-1.37l.79 1.03c-.61.33-1.18.75-1.67 1.25-.25.25-.25.66 0 .92.25.25.66.25.92 0 .45-.46.98-.83 1.55-1.12l.81 1.04c-.54.24-1.03.57-1.45.99a.64.64 0 0 0 0 .92c.25.25.66.25.92 0 .31-.32.68-.56 1.09-.73.09-.04.18-.07.27-.1l.87 1.13c-.34.02-.68.1-.99.23-.27.11-.53.26-.75.44-.13.11-.13.3-.01.42l1.69 1.7c.12.11.31.11.43 0l1-1.01 2.53 3.29c-1.14.52-2.41.82-3.74.82-4.98 0-9-4.03-9-9"/></svg>
